X:115
T:Breathe on Me, Breath of God
%%stretchlast false
M:4/4
L:1/4
K:F clef=C1
"^vi"[D,F,A,D]2 "^vi¹"[F,,A,DA] "^vii°¹"[G,,B,EG] | "^vi²"[A,,A,DF] "^V/vi"[A,,A,_DE] "^vi"[D,F,D]2 | "^I"[F,,F,CA]2 "^I¹"[A,,F,Cc] "^IV"[B,,F,DB] | "^I²"[C,F,CA] "^V"[C,E,CG] "^I"[F,,F,CA]2 | "^vi"[D,D] "^I¹"[A,,A,CF] "^iii"[B,,A,B,E] "^vi7¹"[F,,F,CD] | "^IVmaj7"[B,,F,DA] [G,,F,DF] "^ii²"[D,B,DG] "^III+"[A,,A,_DF] | "^IV"[B,,A,DE] "^vi¹"[F,,F,D] "^iii"[G,,A,EA] "^ii"[A,,B,DG] | "^vi²"[A,,A,DF] "^III+"[A,,A,_DF] "^III"[A,,A,_DE] "^vii7³"[D,,G,DE] | "^vi"[D,,F,D]4 |]
